X: 160493
T: Peter Tuohy's Favorite
S: "Treoir" 
Z: B.Black
M: 6/8
L: 1/8
R: jig 
K: Dmix
c | A2 d cAG | AdB cAG | F2 D DED | FDF GED |
AGA cAG | Add d2 e | fed ed^c | Add d2 :|
K: D
e | fef fga | efe ecA | ded dcd | ecA ecA |
fef fga | efe efg | faf gec | edc d2 :|
